!!!!SEGMENT: pl-wn--sd-xvi-qu-273--120_gomolka-mikolaj--w-kazdym-ucisku-swoim-wolalem-do-pana.krn
!!!cenid: 15xx:325
!!!COM: Gomółka, Mikołaj
!!!COM-rismid: pe30013343
!!!CDT: ~1535->1591/04/30
!!!CNT: Polish
!!!GTL: Melodiae na psalterz polski
!!!OTL: CXX. W każdym ucisku swoim wołałem do Pana,
!!!PDT: 1580
!!!AGN: Sacred
!!!SMS-siglum: PL-Wn
!!!SMS-shelfmark: SD XVI.Qu.273
!!!SMS-shelfwork: 120 G
!!!NIFC-rismid:
!!!ONB-nifc: Melodiae na psalterz polski
**kern	**text	**kern	**text	**kern	**text	**kern	**text
*part4	*part4	*part3	*part3	*part2	*part2	*part1	*part1
*staff4	*staff4	*staff3	*staff3	*staff2	*staff2	*staff1	*staff1
*clefF4	*	*clefC3	*	*clefC3	*	*clefC1	*
*k[b-]	*	*k[b-]	*	*k[b-]	*	*k[b-]	*
*g:	*	*g:	*	*g:	*	*g:	*
*M4/2	*	*M4/2	*	*M4/2	*	*M4/2	*
*met(C|)	*	*met(C|)	*	*met(C|)	*	*met(C|)	*
=-	=-	=-	=-	=-	=-	=-	=-
*>A	*	*	*	*	*	*	*
1G	W_káʒ̇-	2.B-	W_káʒ̇-	1d	W_káʒ̇-	1g	W_káʒ̇-
.	.	4c/	.	.	.	.	.
2G	-dym	4d	-dym	4B-	-dym	2.dd	-dym
.	.	4e	.	4c	.	.	.
2D/	u-	2f	u-	2d	u-	.	.
.	.	.	.	.	.	4dd	u-
=3-	=3-	=3-	=3-	=3-	=3-	=3-	=3-
2E-X	-ći-	4e-X	-ći-	2g	-ći-	4cc	-ći-
.	.	4d	.	.	.	4b-	.
2G	-ʃťu	4c	-ʃťu	2e	-ʃťu	1b-	-ʃťu
.	.	4B-	.	.	.	.	.
1F	ʃwo-	1c	ʃwo-	2.f	ʃwo-	.	.
.	.	.	.	.	.	2a	ʃwo-
.	.	.	.	4e	.	.	.
=4-	=4-	=4-	=4-	=4-	=4-	=4-	=4-
2BB-	-im	2B-	-im	4d	-im	2b-	-im
.	.	.	.	4c/	.	.	.
2.BB-	wo-	2F	wo-	4B-/	wo-	2dd	wo-
.	.	.	.	4c\	.	.	.
.	.	2.F	-ła-	4d	-ła-	2dd	-ła-
4C	-ła-	.	.	4e	.	.	.
4D/	-łem	.	.	2f	-łem	2dd	-łem
4E\	.	4G	-łem	.	.	.	.
=5-	=5-	=5-	=5-	=5-	=5-	=5-	=5-
4F	do	4A	do	2f	do	1cc	do
4G	.	4B-	.	.	.	.	.
4A	.	4c	.	2e	.	.	.
4F	.	4A	.	.	.	.	.
2G	pá	4B-	pá	4d	pá	1b-	pá
.	.	4A	.	4c	.	.	.
2GG	.	4B-	.	4d	.	.	.
.	.	4c	.	4e	.	.	.
=6-	=6-	=6-	=6-	=6-	=6-	=6-	=6-
!!LO:PB:g=original
2D/	-ná/	2d	-ná/	2f	-ná/	2.a	-ná/
2E	A	2.c/	A	4e	A	.	.
.	.	.	.	4d	.	4g/	A
2F	mo-	.	.	4c	mo-	4a	mo-
.	.	4B-	mo-	2f	.	4b-	.
2F	-iá	2A	-iá	.	.	4cc	-iá
.	.	.	.	4e	-iá	4a	.
=7-	=7-	=7-	=7-	=7-	=7-	=7-	=7-
1G	proś-	1d	proś-	4d	proś-	1b-	proś-
.	.	.	.	4c	.	.	.
.	.	.	.	4d	.	.	.
.	.	.	.	4e	.	.	.
2A	-(ba)	2c/	-(ba)	4f	-(ba)	2a	-(ba)
.	.	.	.	4g	.	.	.
2AA	ӡawʒ̇-	2e	ӡawʒ̇-	2a	ӡawʒ̇-	2cc#X	ӡawʒ̇-
=8-	=8-	=8-	=8-	=8-	=8-	=8-	=8-
2BB-	-dy	2d	-dy	2f	-dy	2dd	-dy
2C	by-	2G	by-	2e	by-	4cc	by-
.	.	.	.	.	.	4b-	.
2D/	-łá	2F	-łá	2f	-łá	2a	-łá
2BB-	wyʃ-	2F	wyʃ-	1d	wyʃ_łu-	4b-	wyʃ-
.	.	.	.	.	.	4a	.
=9-	=9-	=9-	=9-	=9-	=9-	=9-	=9-
2E	-łu-	2G	-łu-	.	.	4g	-łu-
.	.	.	.	.	.	4f	.
2E	-(cha-	2G	-(cha-	2c/	-(cha-	2g	-(cha-
1D	-na)	1A	-na)	1d	-na)	1f#X	-na)
=10-	=10-	=10-	=10-	=10-	=10-	=10-	=10-
1D	Y	1d	Y	1f	Y	1a	Y
2D/	dʒ́iś	2d	dʒ́iś	2f	dʒ́iś	2f#X	dʒ́iś
1G	ćię	2.B-	ćię	2d	ćię	2g/	ćię
=11-	=11-	=11-	=11-	=11-	=11-	=11-	=11-
.	.	.	.	2d	tym-	2a	tym-
.	.	4c	.	.	.	.	.
2F	tym-	2d	tym-	2A	.	2a	.
2G	-ʒ̇e	2d	-ʒ̇e	2G	-ʒ̇e	1b-	-ʒ̇e_ʃer-
2G	ʃer-	2d	ʃer-	4g	ʃer-	.	.
.	.	.	.	4f	.	.	.
=12-	=12-	=12-	=12-	=12-	=12-	=12-	=12-
4A	.	4c	.	2e	cem	2a	-cem
4G	.	4B-	.	.	.	.	.
4F	-cem	4A	-cem	2f	pro-	2cc	pro-
4E	.	4G	.	.	.	.	.
4D/	pro-	2F	pro-	2f	.	2.dd	.
4C	.	.	.	.	.	.	.
2BB-	-ʃᴣę	2B-	-ʃᴣę	2f	-ʃᴣę	.	.
.	.	.	.	.	.	4cc	-ʃᴣę
=13-	=13-	=13-	=13-	=13-	=13-	=13-	=13-
!!LO:PB:g=original
2E	pá	2B-	pá	2g	pá-	4b-	pá
.	.	.	.	.	.	4a	.
2E	-ná	4e\	-ná	2g	-ná	1b-	-ná
.	.	4d\	.	.	.	.	.
1F	ʃwe-	4c/	.	2.f	.	.	.
.	.	4B-	.	.	.	.	.
.	.	2c/	ʃwe-	.	.	2a	ʃwe-
.	.	.	.	4e	ʃwe-	.	.
=14-	=14-	=14-	=14-	=14-	=14-	=14-	=14-
2BB-	-go/	2B-	-go/	2d	-go/	2b-	-go/
2BB-	Ob-	2B-	Ob-	2f	Ob-	2dd	Ob-
2FF	-roń	2A	-roń	2f	roń	2cc	-roń
2GG	mię	2G	mię	2d	mię	2b-	mię
=15-	=15-	=15-	=15-	=15-	=15-	=15-	=15-
2D/	od	2B-	od	2d	od	2a	od
2D/	po-	1A	po-	1d	po-	4g	po-
.	.	.	.	.	.	4f#X	.
1E-X	-twa-	.	.	.	.	1g	-twa-
.	.	2G	-twa-	2c/	-twa-	.	.
=16-	=16-	=16-	=16-	=16-	=16-	=16-	=16-
2D/	-rӡy	2A	-rӡy	2d	-rӡy	2f	-rӡy
1G	ię-	2.B-	ię-	2.d	ię-	1b-	ię-
.	.	4c/	.	4e-X	.	.	.
2F	-ӡy-	2d	-ӡy-	4f	ӡy-	2a	-ӡy-
.	.	.	.	4d	.	.	.
=17-	=17-	=17-	=17-	=17-	=17-	=17-	=17-
2E-	-ťá	2B-	-ťá	2e	-ťá	2g/	-ťá
2C	ӡdrád-	4c	ӡdrád-	2e	ӡdrád-	1g	ӡdrád-
.	.	4B-	.	.	.	.	.
1D	-ne-	4A	.	2.d	ne-	.	.
.	.	4G	.	.	.	.	.
.	.	2A	-ne-	.	.	2f	-ne-
.	.	.	.	4c/	.	.	.
=18-	=18-	=18-	=18-	=18-	=18-	=18-	=18-
!'ogonek po lewej stronie'	!	!	!	!	!	!	!
!!LO:N:vis=00
0GG/	-go.	0G/	-go.	0B-/	-go.	0g	go.
=-	=-	=-	=-	=-	=-	=-	=-
*-	*-	*-	*-	*-	*-	*-	*-
!!!RDF**kern: l = terminal long
!!!system-decoration: s1,s2,s3,s4
!!!ENC:Anna Matuszewska
!!!END:2020-02-19
!!!URL-scan: https://polona.pl/item/melodiae-na-psalterz-polski,Nzk3MTM4ODQ/279 Scan on Polona
!!!IIIF: https://polona.pl/iiif/item/Nzk3MTM4ODQ/manifest.json
